X: 1
T: Hawk, The
M: 4/4
L: 1/8
R: hornpipe
K: Dmaj
(3ABc|:d2 fd Adfe|dfeg fagf|e2 ge Begf|edcB ABcA|
d2 fd Adfe|dfeg fagf|edef gABc|1dAfe d2  (3ABc:|2dAfe d2 cB||
Aafd Agec|Agec dcBA|BAcB dced|fegf e2 ef|
gafg efde|caBg AfGe|cdef gABc|1dAfe d2 cB:|2dAfe d2 (3ABc||
